svg/emoji_u2797.svg

<?xml version="1.0" encoding="UTF-8"?>
<svg width="128" height="128" enable-background="new 0 0 128 128" xmlns="http://www.w3.org/2000/svg"><g fill="url(#a)"><radialGradient id="a" cx="63.744" cy="3.5832" r="120.58" gradientUnits="userSpaceOnUse"><stop stop-color="#4CAF50" offset="0"/><stop stop-color="#388E3C" offset="1"/></radialGradient><circle cx="64" cy="106" r="18"/><circle cx="64" cy="22" r="18"/><path d="m120 52h-112c-2.21 0-4 1.79-4 4v16c0 2.21 1.79 4 4 4h112c2.21 0 4-1.79 4-4v-16c0-2.21-1.79-4-4-4z"/></g><g fill="#424242" opacity=".2"><path d="m64 91c8.27 0 15 6.73 15 15s-6.73 15-15 15-15-6.73-15-15 6.73-15 15-15m0-3c-9.94 0-18 8.06-18 18s8.06 18 18 18 18-8.06 18-18-8.06-18-18-18z"/><path d="m64 7c8.27 0 15 6.73 15 15s-6.73 15-15 15-15-6.73-15-15 6.73-15 15-15m0-3c-9.94 0-18 8.06-18 18s8.06 18 18 18 18-8.06 18-18-8.06-18-18-18z"/><path d="m120 55c0.55 0 1 0.45 1 1v16c0 0.55-0.45 1-1 1h-112c-0.55 0-1-0.45-1-1v-16c0-0.55 0.45-1 1-1h112m0-3h-112c-2.21 0-4 1.79-4 4v16c0 2.21 1.79 4 4 4h112c2.21 0 4-1.79 4-4v-16c0-2.21-1.79-4-4-4z"/></g></svg>

<svg width="128" height="128" style="enable-background:new 0 0 128 128;" xmlns="http://www.w3.org/2000/svg" xmlns:xlink="http://www.w3.org/1999/xlink">
  <g>
    <g>
      <radialGradient id="SVGID_1_" cx="63.7441" cy="3.5832" gradientUnits="userSpaceOnUse" r="120.5848">
        <stop offset="0" style="stop-color:#4CAF50"/>
        <stop offset="1" style="stop-color:#388E3C"/>
      </radialGradient>
      <circle cx="64" cy="106" r="18" style="fill:url(#SVGID_1_);"/>
      <radialGradient id="SVGID_2_" cx="63.7441" cy="3.5832" gradientUnits="userSpaceOnUse" r="120.5848">
        <stop offset="0" style="stop-color:#4CAF50"/>
        <stop offset="1" style="stop-color:#388E3C"/>
      </radialGradient>
      <circle cx="64" cy="22" r="18" style="fill:url(#SVGID_2_);"/>
      <radialGradient id="SVGID_3_" cx="63.7441" cy="3.5832" gradientUnits="userSpaceOnUse" r="120.5848">
        <stop offset="0" style="stop-color:#4CAF50"/>
        <stop offset="1" style="stop-color:#388E3C"/>
      </radialGradient>
      <path d="M120,52H8c-2.21,0-4,1.79-4,4v16c0,2.21,1.79,4,4,4h112c2.21,0,4-1.79,4-4V56 C124,53.79,122.21,52,120,52z" style="fill:url(#SVGID_3_);"/>
    </g>
    <g style="opacity:0.2;">
      <path d="M64,91c8.27,0,15,6.73,15,15s-6.73,15-15,15s-15-6.73-15-15S55.73,91,64,91 M64,88 c-9.94,0-18,8.06-18,18c0,9.94,8.06,18,18,18s18-8.06,18-18C82,96.06,73.94,88,64,88L64,88z" style="fill:#424242;"/>
      <path d="M64,7c8.27,0,15,6.73,15,15s-6.73,15-15,15s-15-6.73-15-15S55.73,7,64,7 M64,4 c-9.94,0-18,8.06-18,18c0,9.94,8.06,18,18,18s18-8.06,18-18C82,12.06,73.94,4,64,4L64,4z" style="fill:#424242;"/>
      <path d="M120,55c0.55,0,1,0.45,1,1v16c0,0.55-0.45,1-1,1H8c-0.55,0-1-0.45-1-1V56c0-0.55,0.45-1,1-1H120 M120,52H8c-2.21,0-4,1.79-4,4v16c0,2.21,1.79,4,4,4h112c2.21,0,4-1.79,4-4V56C124,53.79,122.21,52,120,52L120,52z" style="fill:#424242;"/>
    </g>
  </g>
</svg>
